X: 36256
T: Seal Island Fiddle
R: reel
M: 4/4
K: Eminor
EGGD EDB,D|~G3A BGAB|GEED EDB,D|GABG A2BA|
GE~E2 EDB,D|~G3A BGAB|GEED EDB,D|GABG A2Bc||
d2gd e2gd|e2gd edBc|d2gd e2ga|bagd e2ga|
bagd e2gd|e2gd edBb|agef g2ed|BAGB AGED||

